!!!ONB: MCCC : ILB0166_02 : Extracted Monophonic Melody
!!!COM: Beethoven, Ludwig van
!!!OPR: Piano Sonata No.5
!!!OMV: 2
!!!SCT: Op.10 No.1
!!!ODT: 1795///
**kern
*thru
*staff1
*clefG2
*k[b-e-a-d-]
*A-:
*M2/4
*MM52
=1
4a-
8.cc
16b-
=2
4.a-
8a
=3
4b-
8.dd-
16cc
=4
4.b-
8b
=5
8..cc
32a-
8..ee-
32cc
=6
8..ff
32dd-
4aa-
=7
16aa-
16gg
16ff
16ee-
8dd-
8cc
=8
8.ee-
16cc
16b-
32dd-
32cc
32ee-
32dd-
48cc
48dd-
48b-
=9
4a-
8.cc
16b-
=10
4a-
4r
=11
4b-
8.dd-
16cc
=12
4b-
4r
=13
8..cc
32a-
8..ee-
32cc
=14
4.ff
16ee-
16dd-
=15
8cc
8ee-
8dd-
8b-
=16
4b-
8a-
8r
=17
4fff
8f
16.r
32e-
=18
4e-
8d-
8r
=19
4eee-
8e-
16.r
32d-
=20
4d-
8c
8r
=21
4r
8r
16.r
32e-
=22
4e-
16d
16e
16f
16a
=23
16b-
16cc#
16dd
16ee
16ff
16gg
16aa-
16ff
=24
[4dd
8dd]
16.ee-
32ff
=25
8ff
4ee-
8ee
=26
[4ff
8ff]
16.gg
32aa-
=27
8aa-
16gg
16r
4r
=28
96r
96d
96e-
96f
96e-
96d
96a-
96g
96f
96dd
96cc
96b-
96ff
96ee-
96dd
96aa-
96gg
96ff
[16ccc
8.ccc]
112ccc
112bb-
112aa-
112gg
112ff
112ee-
112dd
=29
16.ff
32ee-
32.dd
64ee-
32.ff
64ee-
8e-
8r
=30
96r
96f
96g
96a-
96g
96f
96dd
96cc
96b-
96ff
96ee-
96dd
96aa-
96gg
96ff
96ddd
96ccc
96bb-
[16fff
8.fff]
96fff
96eee-
96ddd
96ccc
96bb-
96aa-
=31
8.gg
32r
32gg
8.aa-
32r
32aa-
=32
8.bb-
32r
32bb-
8.bb
32r
32bb
=33
8.ccc
32r
32ccc
8.ddd
32r
32ddd
=34
8.eee-
32r
32eee-
16fff
16eee-
16ddd
16ccc
=35
16bb-
16aa
16ccc
16bb-
16aa-
16gg
16ff
16bb-
=36
24ff#
24gg
24g
24r
24gg
24g
24gg
24aa-
24a-
24r
24aa-
24a-
=37
2r
=38
24bb
24ccc
24cc
24r
24ccc
24cc
24ccc#
24ddd
24dd
24r
24ddd
24dd
=39
24ddd
24eee-
24ee-
24r
24eee-
24ee-
24eee-
24gg-
24eee-
24aa
24eee-
24aa
=40
[4bb-
24bb-]
24aa
24ccc
24bb-
24aa-
24gg
=41
8..ff
32ff
8..bb-
32bb-
=42
8ee-
8r
4r
=43
8..f
32f
8..b-
32b-
=44
8e-
8r
4r
=45
8g
8r
4r
=46
4a-
8.cc
16b-
=47
[4a-
16a-]
16g
16a-
16a
=48
4b-
8.dd-
16cc
=49
[4b-
24b-]
24ff
24ee-
24dd-
24cc
24b
=50
8..cc
32a-
8..ee-
32cc
=51
8..ff
32dd-
[4aa-
=52
16aa-]
16gg
16ff
16ee-
16ee-
16dd-
16dd-
16cc
=53
8.ee-
16cc
16b-
32dd-
32cc
32ee-
32dd-
64cc
64ee-
64dd-
64b-
=54
4a-
8.cc
16b-
=55
4a-
4r
=56
4b-
8.dd-
16cc
=57
4b-
4r
=58
8..cc
32a-
8..ee-
32cc
=59
[4ff
8ff_
24ff]
24ee-
24dd-
=60
8cc
8ee-
8dd-
8b-
=61
4b-
8a-
8r
=62
4fff
8f
16.r
32e-
=63
4e-
8d-
8r
=64
4eee-
8e-
16.r
32d-
=65
4d-
8c-
8r
=66
4r
8r
16.r
32f-
=67
4f-
8e-
16.r
32e-
=68
4e-
8d
16.r
32d
=69
4d
16d-
16a
16b-
16cc
=70
16dd-
16ff#
16gg
16aa
16bb-
16ccc
16ddd-
16bb-
=71
[4gg
8gg]
16.aa-
32bb-
=72
8bb-
4aa-
8aa
=73
[4bb-
8bb-]
16.ccc
32ddd-
=74
8ddd-
16ccc
16r
4r
=75
96r
96g
96a-
96b-
96a-
96g
96dd-
96cc
96b-
96ff
96ee-
96dd-
96bb-
96aa-
96gg
96ddd-
96ccc
96bb-
[16fff
8.fff]
112fff
112eee-
112ddd-
112ccc
112bb-
112aa-
112gg
=76
16.bb-
32aa-
32.gg
64aa-
32.bb-
64aa-
8a-
8r
=77
96r
96b-
96cc
96dd-
96cc
96b-
96ff
96ee-
96dd-
96bb-
96aa-
96gg
[8ddd-
8.ddd-]
176ccc
176ddd-
176eee-
176ddd-
176ccc
176bb-
176aa-
176gg
176ff
176ee-
176dd-
=78
8.cc
32r
32cc
8.dd-
32r
32dd-
=79
8.ee-
32r
32ee-
8.ee
32r
32ee
=80
8.ff
32r
32ff
8.gg
32r
32gg
=81
8.aa-
32r
32aa-
16bb-
16aa-
16gg
16ff
=82
16ee-
16dd
16ff
16ee-
16dd-
16cc
16b-
16ee-
=83
24b
24cc
24c
24r
24cc
24c
24cc
24dd-
24d-
24r
24dd-
24d-
=84
24dd
24ee-
24e-
24r
24ee-
24e-
24ee-
24ee
24e
24r
24ee
24e
=85
24ee
24ff
24f
24r
24ff
24f
24ff#
24gg
24g
24r
24gg
24g
=86
24gg
24aa-
24a-
24r
24aa-
24a-
24ccc-
24cc-
24ccc-
24a-
24aa-
24a-
=87
8ee-
8r
24r
24ddd
24fff
24eee-
24ddd-
24ccc
=88
8..bb-
32bb-
8..eee-
32eee-
=89
8aa-
8r
24r
24dd
24ff
24ee-
24dd-
24cc
=90
8..b-
32b-
8..ee-
32ee-
=91
4a-
8.cc
16b-
=92
4a-[
8.a-]
16a
=93
4b-
8.dd-
16cc
=94
2b-
=95
4ee-
4dd-
=96
4cc
8b-
16.dd-
32b-
=97
4a-
8a
8b-
=98
8b
8cc
8dd-
8dd
=99
4ee-
4dd-
=100
4cc
16b-
16cc
16.dd-
32b-
=101
8a-
8a
8b-
8g
=102
8a-
8r
4r
=103
4dd-
4dd-
=104
8cc
8r
4r
=105
4b-
4b-
=106
16a-
8e-
8e-
8e-
[16e-
=107
16e-]
8e-
8e-
8e-
[16e-
=108
16e-]
8e-
8e-
8e-
16e-[
=109
16e-]
8c
8c
8c
16c[
=110
16c]
8A-
8A-
8A-
[16A-
=111
8A-]
8r
8E-
8r
=112
2C
==
*-
